!!!CDT:
!!!PTL: L'ottavo libro de'madrigali a cinque voci
!!!PPP: Venice
!!!PPR: Ricciardo Amadino
!!!PDT: 1603
!!!PUB-format:
!!!RISM: I 10
!!!AGN: Madrigal
!!!SCT: Tsg06103a
!!!SCA: Tsg06103a
!!!original-voices: 5
!!!extant-voices: 2
!!!complete: N
!!!final: (A)(C)A
!!!COM: Il Verso, Antonio
!!!OTL: Era la notte, e 'l suo stellato velo
**kern	**text	**kern	**text
*part2	*part2	*part1	*part1
*staff2	*staff2	*staff1	*staff1
*I"Quinto	*	*I"Canto	*
*I'V	*	*I'C	*
*oclefC3	*	*oclefG2	*
*clefGv2	*	*clefG2	*
*k[]	*	*k[]	*
*C:	*	*C:	*
*omet(C|)	*	*omet(C|)	*
*M2/1	*	*M2/1	*
=1	=1	=1	=1
!!LO:TX:a:t=Prima stanza.
*	*	*col	*
0r	.	3%2f	E-
.	.	3%2f	-ra
.	.	3%2f	la
=2	=2	=2	=2
*col	*	*	*
3%2F	E-	3%2.a	not-
3%2F	-ra	.	.
.	.	3b	-te e'l
3%2F	la	3cc	suo
.	.	3a	stel-
=3	=3	=3	=3
3%2.A	not-	3%4cc	-la-
3B	-te, e'l	.	.
3c	suo	3%2cc	-to
3A	stel-	.	.
=4	=4	=4	=4
3%4c	-la-	3%4ee	ve-
3%2d	-to	3%2dd	-lo,
=5	=5	=5	=5
3%2.e	ve-	3%2cc	E-
.	.	3%2cc	-ra
3d	.	.	.
3%2c	.	3%2cc	la
=6	=6	=6	=6
3%2d	.	3%2.b	not-
3%2e	-lo,	.	.
.	.	3g	-te e'l
3%2r	.	3a	suo
.	.	3b	stel-
=7	=7	=7	=7
3%2a	E-	3%4cc	-la-
3%2a	-ra	.	.
3%2a	la	3%2cc	-to
=8	=8	=8	=8
3%2.g	not-	3%4.ee	ve-
3f	-te, e'l	.	.
3g	suo	.	.
3e	stel-	.	.
=9	=9	=9	=9
3%4f	-la-	3%4.cc	-lo,
3%2f	-to	.	.
=10	=10	=10	=10
3%4e	ve-	0r	.
3%2e	-lo,	.	.
=11	=11	=11	=11
3%2A	E-	0r	.
3%2A	-ra	.	.
3%2A	la	.	.
=12	=12	=12	=12
3%2.c	not-	3%2cc	E-
.	.	3%2cc	-ra
3d	-te e'l	.	.
3e	suo	3%2cc	la
3f	stel-	.	.
=13	=13	=13	=13
3%4e	-la-	3%2.ee	not-
.	.	3dd	-te e'l
3%2e	-to,	3cc	suo
.	.	3b	stel-
=14	=14	=14	=14
3%2f	e'l	3%4a	-la-
3%2f	suo	.	.
3%2f	stel-	3%2cc	-to
*Xcol	*	*Xcol	*
=15	=15	=15	=15
2e	-la-	0cc	ve-
2c	-to	.	.
1c	ve-	.	.
=16	=16	=16	=16
1c	-lo	1a	-lo
1r	.	2r	.
.	.	2cc	Chia-
=17	=17	=17	=17
0r	.	4b	-ro
.	.	4cc	spie-
.	.	4dd	-ga-
.	.	4ee	-va e
.	.	4.cc	sen-
.	.	8cc	-za
.	.	4cc	nu-
.	.	4cc	-be al-
=18	=18	=18	=18
2r	.	2dd	-cu-
4r	.	2ee	-na;
4e	Chia-	.	.
4d	-ro	1r	.
4e	spie-	.	.
4f	-ga-	.	.
8eL	.	.	.
8dJ	.	.	.
=19	=19	=19	=19
4c	.	0r	.
4g	-va e	.	.
4.f	sen-	.	.
8d	-za	.	.
8e	nu-	.	.
8c	-be al-	.	.
4.f	-cu-	.	.
16eL	.	.	.
16dJ	.	.	.
4e	.	.	.
=20	=20	=20	=20
1c	-na;	2r	.
.	.	2cc	E
2r	.	4cc	già
.	.	4cc	spar-
2f	E	4a	-gea
.	.	[4cc	rai
=21	=21	=21	=21
4f	già	8cc]L	.
.	.	8b	.
4f	spar-	8a	.
.	.	8bJ	.
4e	-gea	2cc	.
4.f	rai	.	.
.	.	8cc	lu-
8eL	.	8cc	-mi-
8d	.	2dd	-no-
8cJ	.	.	.
2B-X	.	.	.
.	.	4dd	-si e
=22	=22	=22	=22
8A	lu-	0cc	ge-
8F	-mi-	.	.
2c	-no-	.	.
4A	-si e	.	.
2c	ge-	.	.
4A	-lo,	.	.
8c	lu-	.	.
8d	-mi-	.	.
=23	=23	=23	=23
2e	-no-	1cc	-lo
2c	-si e	.	.
8BL	ge-	1r	.
8A	.	.	.
8B	.	.	.
8c	.	.	.
8d	.	.	.
8e	.	.	.
8f	.	.	.
8dJ	.	.	.
=24	=24	=24	=24
2e	.	2r	.
2e	-lo	4r	.
.	.	4a	Di
4r	.	4cc	vi-
4f	Di	4cc	-ve
4.B-X	vi-	4.dd	per-
8c	-ve	8ee	-le
=25	=25	=25	=25
4d	per-	8ff	la
.	.	8dd	sor-
4A	-le	2ff	-gen-
4BnXi	la	.	.
4c	sor-	4ee	-te
8FL	-gen-	2ff	Lu-
8G	.	.	.
8A	.	.	.
8BJ	.	.	.
4.c	.	2ee	-na.
16dL	.	.	.
16eJ	.	.	.
=26	=26	=26	=26
4f	.	0r	.
4f	-te	.	.
2e	Lu-	.	.
2d	-na.	.	.
2r	.	.	.
=27	=27	=27	=27
2r	.	4r	.
.	.	4cc	L'in-
4r	.	4cc	-na-
4g	L'in-	4dd	-mo-
4a	-na-	4cc	-ra-
4d	-mo-	4ff	-ta
4c	-ra-	4ee	Don-
4d	-ta	4ff	-na i-
=28	=28	=28	=28
2B-X	Don-	4dd	-va
.	.	4dd	co'l
2A	-na i-	2cc	Cie-
2a	-va	2cc	-lo
4a	co'l	2r	.
4g	Cie-	.	.
=29	=29	=29	=29
8aL	.	0r	.
8g	.	.	.
8f	.	.	.
8gJ	.	.	.
4a	.	.	.
4f	-lo,	.	.
4r	.	.	.
4d	co'l	.	.
2f	Cie-	.	.
=30	=30	=30	=30
2f	-lo	4r	.
.	.	8a	Le
.	.	8b	sue
4r	.	2.cc	fiam-
8A	Le	.	.
8B	sue	.	.
2.c	fiam-	.	.
.	.	8dd	-me
.	.	8ee	sfo-
.	.	2ff	-gan-
8c	-me	.	.
8d	sfo-	.	.
=31	=31	=31	=31
2.e	-gan-	2ee	-do
.	.	4r	.
4f	-do ad	4a	ad
4g	u-	4cc	u-
4a	-na ad	4cc	-na ad
2g	u-	2cc	u-
=32	=32	=32	=32
4a	-na,	1cc	-na;
4a	ad	.	.
4.g	u-	.	.
8e	-na ad	.	.
4f	u-	2r	.
4g	-na;	.	.
4r	.	4r	.
4A	E	4a	E
=33	=33	=33	=33
4.B-X	se-	4.f	se-
8B-X	-cre-	8g	-cre-
4c	-ta-	4.a	-ta-
4d	-rij	.	.
.	.	8a	-rij
4.f	del	4a	del
.	.	4cc	suo a-
8e	suo a-	.	.
4d	-mo-	4dd	-mo-
4c	-re an-	4ee	-re an-
=34	=34	=34	=34
2B-X	-ti-	2dd	-ti-
2A	-co,	2cc#X	-co,
2r	.	4r	.
.	.	4dd	E
4r	.	4dd	se-
4g	E	4ee	-cre-
=35	=35	=35	=35
4f	se-	4.a	-ta-
4f	-cre-	.	.
.	.	8b	-rij
4f	-ta-	2.ccnXi	del
4c	-rij	.	.
8A	del	.	.
8BnXi	suo a-	.	.
2c	-mo-	4cc	suo a-
.	.	4cc	-mo-
4G	-re an-	4cc	-re an-
=36	=36	=36	=36
1d	-ti-	1ff	-ti-
2G	-co	2ee	-co
2c	Fea i	2e	Fea i
=37	=37	=37	=37
2.F	mu-	2.f	mu-
4F	-ti	4f	-ti
2F	cam-	2a	cam-
2E	-pi e	2g	-pi e
=38	=38	=38	=38
2.F	quel	2.a	quel
4G	.	4b	.
4A	.	[1cc	.
4F	.	.	.
[2c	.	.	.
=39	=39	=39	=39
4c]	.	2cc]	.
4A	si-	.	.
2d	-len-	2dd	si-
2G	-tio a-	2ee	-len-
[2A	-mi-	2ff	-tio a-
=40	=40	=40	=40
4A]	.	1dd	-mi-
4G	.	.	.
2G	.	.	.
2F	-co,	1dd	-co,
2F	a-	.	.
=41	=41	=41	=41
0c	-mi-	2r	.
.	.	2g	a-
.	.	1cc	-mi-
=42	=42	=42	=42
0cl	-co.	0al	-co.
==	==	==	==
*-	*-	*-	*-
!!!system-decoration: [*]
!!!RDF**kern: i = editorial accidental
!!!RDF**kern: l = terminal long
!!!ENC: Emiliano Ricciardi
!!!END: 2019
!!!EED: Ricciardi, Emiliano
!!!EEV: 2019/05/05
!!!YEC: Copyright 2018 Emiliano Ricciardi, All Rights Reserved
!!!ONB: Translated from MusicXML on 2019/05/05
!!@@BEGIN:	VERSEDATA
!!@CATALOGNUM:	Tsg06103
!!@LAST_MODIFIED: 2020/07/12
!!@TITLE:		Era la notte e 'l suo stellato velo
!!@CANTO:		VI
!!@OTTAVA:	103
!!@MANUSRC:	G-Al, G-Au, G-Br<sub>1</sub>, G-Br<sub>2</sub>, G-Cv, G-Es<sub>1</sub>, G-Es<sub>2</sub>, G-Es<sub>3</sub>, G-F, G-Fr, G-Fr<sub>1</sub>, G-Fr<sub>2</sub>, G-Mc, G-Mc<sub>1</sub>, G-Mg, G-Mr, G-Mt, G-N
!!@PRINTSRC:	G-1580CM, G-1581B, G-1581CV, G-1581R, G-1581MR, G-1581P, G-1581V, G-1581V<sub>bis</sub>, G-1582C, G-1582M, G-1582MC, G-1582P, G-1582SC, G-1582SC<sub>bis</sub>, G-1583S, G-1584O, G-1584S, G-1585C, G-1585S, G-1588S, G-1589S, G-1590B, G-1590S, G-1592S, G-1593S, G-1594C, G-1595C, G-1597C, G-1598C, G-1599C, G-1600C, G-1600S, G-1601C, G-1601R, G-1602C, G-1604C, G-1604Cl, G-1604F, G-1604P, G-1606B, G-1606B<sub>bis</sub>, G-1606L, G-1607ZR, G-1608DP, G-1609GC, G-1610M, G-1611S, G-1611V, G-1612P, G-1613M, G-1613P, G-1613V, G-1615P, G-1616M, G-1617P, G-1619B, G-1619V, G-1620M, G-1620S, G-1621R, G-1624I, G-1624MT, G-1625C, G-1625S, G-1625SS, G-1626C, G-1626Co, G-1627M, G-1628T, G-1628Tu, G-1630L, G-1630T, G-1632FT, G-1639CF, G-1642M, G-1643I, G-1644P, G-1644S
!!@@BEGIN:	VERSES
!!@ABOUTIT:
!!@ABOUTEN:
!!@EDITOR:	Angelo Solerti
!!@EDITION_TITLE: Gerusalemme liberata. Poema eroico di Torquato Tasso. Edizione critica sui manoscritti e le prime stampe.
!!@EDITION_LOC:	Florence
!!@EDITION_PUB:	G. Barbera
!!@EDITION_DATE:  1895
!!@EDITION_VOL:	2
!!@EDITION_PAGE:  246-47
!!@TRANSLATOR:	Emiliano Ricciardi and Amyrose McCue Gill
!!@VERSE:
!!	Era la notte, e ’l suo stellato velo
!!	Chiaro spiegava e senza nube alcuna;
!!	E giá spargea rai luminosi e gelo
!!	Di vive perle la sorgente luna.
!!	L’innamorata donna iva co 'l cielo
!!	Le sue fiamme sfogando ad una ad una;
!!	E secretari del suo amore antico
!!	Fea i muti campi e quel silenzio amico.
!!@MVERSE_DATE: 20230824
!!@MVERSE:
!!	E||ra la not||te,_e_’l suo stel|la||to ve||lo		=a++ (_ when there is ’?)
!!	Chia||ro spie|ga||va_e sen||za nu||be_al|cu||na;	=b
!!	E giá spar|gea|| rai lu|mi|no||si_e ge||lo		=a
!!	Di vi||ve per||le la sor|gen||te lu||na.		=b
!!	L’in|na|mo|ra||ta don||na_i|va co_'l cie||lo		=a
!!	Le sue fiam||me sfo|gan||do_ad u||na_ad u||na;		=b
!!	E se|cre|ta||ri del suo_a|mo||re_an|ti||co		=c+
!!	Fea_i mu||ti cam||pi_e quel si|len||zio_a|mi||co.	=c
!!@TVERSE:
!!	It was night, and its starry veil
!!	Was spreading clear and without a single cloud;
!!	And already luminous rays and frost
!!	Of living pearls the rising moon was scattering.
!!	The woman in love there [sent] to the sky
!!	Her flames pouring out one by one;
!!	And the secret places of her old love
!!	Made the fields mute and that silence a friend.
!!@@END:		VERSES
!!@OTHER_CRIT_ED:  Torquato Tasso, <i>Gerusalemme liberata</i>, ed. Lanfranco Caretti, 2 vols. (Bari: Laterza, 1967).
!!@ATTRIBUTION_ABOUT:
!!@DATING:	mid-1560s through 1570s
!!@DEDICATEE:	Duke Alfonso II d'Este
!!@COMMENTARY:
!!@@END:		VERSEDATA
!!@@BEGIN: SETTING
!!@CATALOGNUM:	Tsg06103a
!!@CANTO:		VI
!!@OTTAVA:	103
!!@TITLE:	Era la notte, e 'l suo stellato velo
!!@COMPOSER:	Il Verso, Antonio
!!@PARTS:		1 of 3
!!@PRINCEPSTITLE:	L'ottavo libro de'madrigali a cinque voci
!!@PRINCEPSLOC:	Venice
!!@NORMLOC:	Venice
!!@NORMPUB:	Ricciardo Amadino
!!@NORMPUBSHORT:	Amadino
!!@PRINCEPSPUB:	Ricciardo Amadino
!!@PRINCEPSYEAR:	1603
!!@PRINCEPSRISM:	I 10
!!@OVOICES:	5
!!@EXTANTVOICES:	2
!!@OMENSURATION:	Cut-C
!!@OCLEFS:	G2,C3
!!@OTIME:		
!!@OKEYSIG:	-
!!@FINAL:	(A)(C)A
!!@TIMPEDITOR:	Ricciardi, Emiliano
!!@REPRINTS:	
!!@@END: SETTING
